lib/assets/buttons/repeat_folder.svg

<svg height="24" viewBox="0 0 24 24" width="24" xmlns="http://www.w3.org/2000/svg">
    <g transform="matrix(.83333333 0 0 .83333333 2 2)">
        <path d="m8 18h-2.6666667v-3.6l-5.3333333 4.8 5.3333333 4.8v-3.6h2.6666667zm-2.6666667-12h13.3333337v3.6l5.333333-4.8-5.333333-4.8v3.6h-16.0000003v7.2h2.6666666z"
                stroke-width="1.264911" />
        <path d="m22 13.25h-5.6l-1.4-1.5h-4.2c-.777 0-1.4.6675-1.4 1.5v9c0 .8325.623 1.5 1.4 1.5h11.2c.777 0 1.4-.6675 1.4-1.5v-7.5c0-.8325-.623-1.5-1.4-1.5m0 9h-11.2v-9h3.619l1.4 1.5h6.181z"
                stroke-width=".724569" />
    </g>
</svg>

<?xml version="1.0" encoding="UTF-8" standalone="no"?>
<svg
   xmlns:dc="http://purl.org/dc/elements/1.1/"
   xmlns:cc="http://creativecommons.org/ns#"
   xmlns:rdf="http://www.w3.org/1999/02/22-rdf-syntax-ns#"
   xmlns:svg="http://www.w3.org/2000/svg"
   xmlns="http://www.w3.org/2000/svg"
   id="svg4"
   viewBox="0 0 24 24"
   height="24"
   width="24"
   version="1.1">
  <metadata
     id="metadata10">
    <rdf:RDF>
      <cc:Work
         rdf:about="">
        <dc:format>image/svg+xml</dc:format>
        <dc:type
           rdf:resource="http://purl.org/dc/dcmitype/StillImage" />
        <dc:title></dc:title>
      </cc:Work>
    </rdf:RDF>
  </metadata>
  <defs
     id="defs8" />
  <g
     aria-label="F"
     style="font-style:normal;font-weight:normal;font-size:8px;line-height:1.25;font-family:sans-serif;letter-spacing:0px;word-spacing:0px;fill:#000000;fill-opacity:1;stroke:none"
     id="text989" />
  <g
     id="g817"
     transform="matrix(0.83333333,0,0,0.83333333,2,2)">
    <path
       d="M 8,18 H 5.3333333 V 14.4 L 0,19.2 5.3333333,24 V 20.4 H 8 v 0 V 18 M 5.3333333,6 H 18.666667 V 9.6 L 24,4.8 18.666667,0 V 3.6 H 2.6666667 v 7.2 h 2.6666666 z"
       id="path2"
       style="stroke-width:1.26491106" />
    <path
       d="M 22,13.25 H 16.4 L 15,11.75 h -4.2 c -0.777,0 -1.4,0.6675 -1.4,1.5 v 9 c 0,0.8325 0.623,1.5 1.4,1.5 H 22 c 0.777,0 1.4,-0.6675 1.4,-1.5 v -7.5 c 0,-0.8325 -0.623,-1.5 -1.4,-1.5 m 0,9 H 10.8 v -9 h 3.619 l 1.4,1.5 H 22 v 7.5"
       id="path2-3"
       style="stroke-width:0.72456884" />
  </g>
</svg>
